components/Icon/svg/magnify.svg

<svg width="20" height="20" viewBox="0 0 20 20" fill="none" xmlns="http://www.w3.org/2000/svg">
<path fill-rule="evenodd" clip-rule="evenodd" d="M13.3798 12.678L19.2445 19.162L19.2455 19.163C19.4291 19.366 19.4162 19.682 19.2149 19.869C19.1202 19.957 19.0008 20 18.8814 20C18.7472 20 18.6149 19.946 18.5172 19.838L12.6525 13.355C11.344 14.421 9.7295 15 8.02623 15C6.04961 15 4.19141 14.219 2.79307 12.803C1.39473 11.387 0.625 9.503 0.625 7.5C0.625 5.497 1.39571 3.614 2.79307 2.197C4.19042 0.78 6.04961 0 8.02623 0C10.0029 0 11.8611 0.781 13.2594 2.197C14.6577 3.613 15.4275 5.497 15.4275 7.5C15.4275 9.445 14.7012 11.277 13.3798 12.678ZM8.02525 0.999963C4.48844 0.999963 1.61085 3.91596 1.61085 7.49996C1.61085 11.084 4.48844 14 8.02525 14C11.562 14 14.4396 11.084 14.4396 7.49996C14.4396 3.91596 11.562 0.999963 8.02525 0.999963Z" fill="currentColor"/>
</svg>

<svg xmlns="http://www.w3.org/2000/svg" width="20" height="20" viewBox="0 0 20 20">
  <path fill="currentColor" fill-rule="evenodd" d="m13.38 12.678 5.864 6.484.002.001a.504.504 0 0 1-.031.706.487.487 0 0 1-.698-.031l-5.864-6.483A7.283 7.283 0 0 1 8.026 15a7.307 7.307 0 0 1-5.233-2.197A7.499 7.499 0 0 1 .625 7.5c0-2.003.77-3.886 2.168-5.303A7.302 7.302 0 0 1 8.026 0c1.977 0 3.835.781 5.233 2.197A7.5 7.5 0 0 1 15.427 7.5a7.5 7.5 0 0 1-2.047 5.178ZM8.025 1C4.488 1 1.611 3.916 1.611 7.5S4.488 14 8.025 14s6.415-2.916 6.415-6.5S11.562 1 8.025 1Z"/>
</svg>
